img/github-6.svg

<svg fill="none" height="28" viewBox="0 0 29 28" width="29" xmlns="http://www.w3.org/2000/svg" xmlns:xlink="http://www.w3.org/1999/xlink"><clipPath id="a"><path d="m.119141 0h28.0519v28h-28.0519z"/></clipPath><g clip-path="url(#a)"><path clip-rule="evenodd" d="m14.1451 0c-7.74439 0-14.025959 6.42767-14.025959 14.3522 0 6.3396 4.044299 11.7107 9.551429 13.6478.68843.0881.94653-.3522.94653-.7044s0-1.2327 0-2.4654c-3.87219.8805-4.73268-1.9371-4.73268-1.9371-.60234-1.673-1.54888-2.1132-1.54888-2.1132-1.29074-.8805.08605-.8805.08605-.8805 1.37678.088 2.15122 1.4968 2.15122 1.4968 1.29073 2.2013 3.26986 1.5849 4.04429 1.2327.0861-.9685.5163-1.5849.8605-1.9371-3.09776-.3522-6.36762-1.5849-6.36762-7.1321 0-1.5849.51629-2.8176 1.46283-3.87416-.08605-.26416-.60234-1.76101.1721-3.69812 0 0 1.20468-.3522 3.87219 1.49686 1.1186-.3522 2.3233-.44025 3.528-.44025s2.4094.1761 3.528.44025c2.6675-1.84906 3.8722-1.49686 3.8722-1.49686.7745 1.93711.2582 3.43396.1721 3.78617.8605.96851 1.4629 2.28931 1.4629 3.87421 0 5.5472-3.2699 6.6918-6.3677 7.044.5163.4403.9466 1.3208.9466 2.6415v3.9623c0 .3522.2581.7925.9465.7044 5.5932-1.9371 9.5514-7.3082 9.5514-13.6478-.086-7.92453-6.3676-14.3522-14.112-14.3522z" fill="#000" fill-rule="evenodd"/></g></svg>

<svg width="29" height="28" viewBox="0 0 29 28" fill="none" xmlns="http://www.w3.org/2000/svg">
<g clip-path="url(#clip0_3280_4118)">
<path fill-rule="evenodd" clip-rule="evenodd" d="M14.1451 0C6.40071 0 0.119141 6.42767 0.119141 14.3522C0.119141 20.6918 4.16344 26.0629 9.67057 28C10.359 28.0881 10.6171 27.6478 10.6171 27.2956C10.6171 26.9434 10.6171 26.0629 10.6171 24.8302C6.74491 25.7107 5.88442 22.8931 5.88442 22.8931C5.28208 21.2201 4.33554 20.7799 4.33554 20.7799C3.0448 19.8994 4.42159 19.8994 4.42159 19.8994C5.79837 19.9874 6.57281 21.3962 6.57281 21.3962C7.86354 23.5975 9.84267 22.9811 10.6171 22.6289C10.7032 21.6604 11.1334 21.044 11.4776 20.6918C8.37984 20.3396 5.10998 19.1069 5.10998 13.5597C5.10998 11.9748 5.62627 10.7421 6.57281 9.68554C6.48676 9.42138 5.97047 7.92453 6.74491 5.98742C6.74491 5.98742 7.94959 5.63522 10.6171 7.48428C11.7357 7.13208 12.9404 7.04403 14.1451 7.04403C15.3498 7.04403 16.5545 7.22013 17.6731 7.48428C20.3406 5.63522 21.5453 5.98742 21.5453 5.98742C22.3198 7.92453 21.8035 9.42138 21.7174 9.77359C22.5779 10.7421 23.1803 12.0629 23.1803 13.6478C23.1803 19.195 19.9104 20.3396 16.8126 20.6918C17.3289 21.1321 17.7592 22.0126 17.7592 23.3333C17.7592 25.2704 17.7592 26.7673 17.7592 27.2956C17.7592 27.6478 18.0173 28.0881 18.7057 28C24.2989 26.0629 28.2571 20.6918 28.2571 14.3522C28.1711 6.42767 21.8895 0 14.1451 0Z" fill="black"/>
</g>
<defs>
<clipPath id="clip0_3280_4118">
<rect width="28.0519" height="28" fill="white" transform="translate(0.119141)"/>
</clipPath>
</defs>
</svg>
